X: 4148
T: LADY MARIA DUNDAS
R: Reel.
%R: reel
B: James Kerr "Merry Melodies" v.4 p.18 #148
Z: 2016 John Chambers <jc:trillian.mit.edu>
M: C|
L: 1/8
K: F
f |\
c>F F/F/F c2Ac | dfef cAAf |\
c>F F/F/F c2Ac | dfcA G/G/G G ::\
g |\
(f/g/a) (ga) fddf |
cfAf cAAc |\
[1 (f/g/a) ga fddf | cfcA G/G/G G :|\
[2 faga fgdf | cdAf G/G/G G |]

%%sep 1 1 500
%%sep 1 1 500

